X:4
T:La Coccinelle
R:bourree
C:Jean Blanchard
O:France
Z:id:hn-bourree-4
M:3/8
L:1/16
Q:1/8=195
K:D
FG | A2d2c2 | B2A2FG | ABAFEG | F2DEFG |
A2d2c2 | B2A2FG | ABAGFE | D4 :|
|: FG | AFDBGE | AFDBGE | ABAFEG | F2DEFG |
AFDBGE | AFDBGE | ABAGFE | D4 :|

